X: 18947
T: Ingonish
R: jig
M: 6/8
K: Eminor
Bee efg|faf dBA|Bee efg|fdc d2 A|
Bee efg|faf dBA|B>BB Bcd|AGF E3:|
|:BEE BEE|FEF DFA|BEE BEE|FED Edc|
BEE BEE|FEF DFA|B>BB Bcd|AGF E3:|

